X: 176
T: De'il take the Wars
P: Longways for as many as will
%R: reel
B: "The Compleat Country Dancing-Master" printed by John Walsh, London ca. 1740
S: 6: CCDM1 http://imslp.org/wiki/The_Compleat_Country_Dancing-Master_(Various) V.1 p.113 #164 (226)
B: "The Dancing-Master: Containing Directions and Tunes for Dancing" printed by W. Pearson for John Walsh, London ca. 1709
S: 7: DMDfD http://digital.nls.uk/special-collections-of-printed-music/pageturner.cfm?id=89751228 p.219 "U 2"
Z: 2013 John Chambers <jc:trillian.mit.edu>
N: DMDfD has "a Scots air" and "same name" to the right of the title. The two tunes differ slightly in bar 15.
N: The dance seems to have the 1st cu. lead thro' the 1st cu. in the last phrase.
M: C|
L: 1/8
K: C
% - - - - - - - - - - - - - - - - - - - - - - - - -
[|\
c2 (c/d/)e d3 c | cA (A/B/)c G2 E2 |\
(EG) (Gc) (cd) (de) | (fe)(dc) d4 |\
c2 (c/d/)e d3c | cG (A/B/)c G2 E2 |
(EG) (Gc) (cd) (de) | (g/f/)e (d>c) c4 |][|\
e2 (e/f/)g ec ec | B2 (B/c/)d dB dB |\
e2 ec d2 dB | c2 (d/c/)(B/A/) A3 G |
E2 G2 (G/A/)G cG | EG (G/A/)G G3 G |\
A2 c2 d3 A & A2 B>c d3 c | d>e dc B3 A |\
G2 (GE) G2 (cd) | (fe) (d>c) c4 |]
% - - - - - - - - - - - - - - - - - - - - - - - - -
%%begintext align
%% The 1st Cu. cast off below the 2d Cu. and lead thro' the 3d Cu. and cast up
%% into the 2d Cu. Place, the 2d Cu. being in the 1st Cu. Place, do the same .|
%% The 1st Cu. cross over below the 2d Cu. and go the Figure of 8, then
%% lead thro' the 3d Cu. and cast up into the 2d Cu. Place, then lead thro' the
%% 1st Cu. and cast off into the 2d Cu. Place, and turn your Partner .|
%% [CCDM1]
%%endtext
%%sep 1 1 500
%%begintext align
%% The 1. cu cast off below the 2. cu. and lead through the 3. cu. and cast up into the 2. cu place, the
%% 2. cu. being in the 1. cu. place do the same .| The 1. cu. cross over below the 2. cu. and go the Figure
%% of 8. then lead through the 3. cu. and cast up into the 2. cu. place, then lead through the 1. cu. and cast
%% off into the 2. cu. place and turn your partner .|
%% [DMDfD]
%%endtext
%%sep 1 8 500

%%sep 1 1 500
%%sep 1 1 500
